smiling-axolotl/src/assets/experience/SparkoStudio.svg

<svg width="307" height="135" viewBox="0 0 307 135" fill="none" xmlns="http://www.w3.org/2000/svg">
<path fill-rule="evenodd" clip-rule="evenodd" d="M161.439 116.73V134.234H169.913C172.551 134.048 177.828 132.037 177.828 125.482C177.828 118.927 172.551 116.916 169.913 116.73H161.439ZM165.342 130.722V120.242H169.913C171.139 120.391 173.592 121.647 173.592 125.482C173.592 129.317 171.139 130.573 169.913 130.722H165.342Z" fill="#0D0D0D"/>
<path d="M135.319 116.756H131.353V127.75C131.353 130.22 133.364 134.345 139.181 134.345C144.999 134.345 146.801 130.139 146.766 127.75V116.756H142.765V127.75C142.881 128.794 142.327 130.882 139.181 130.882C136.036 130.882 135.296 128.794 135.319 127.75V116.756Z" fill="#0D0D0D"/>
<path d="M90.2779 118.833L88.3878 121.408C87.6705 121.017 82.7488 118.605 81.8362 120.919C81.5259 121.706 82.4936 123.211 85.0955 123.657C89.6587 124.439 90.7995 126.525 90.7995 128.774C90.7995 131.023 89.5935 134.25 84.7696 134.25C80.9105 134.25 78.0118 132.468 77.0449 131.577L79.4895 129.165C84.2808 132.392 86.4646 131.121 86.9209 129.459C87.3772 127.796 84.4437 127.536 82.7163 126.949C80.9888 126.362 77.5992 125.776 77.5992 122.092C77.5992 118.409 80.2065 116.356 84.0852 116.356C87.1882 116.356 89.5066 118.007 90.2779 118.833Z" fill="#0D0D0D"/>
<path fill-rule="evenodd" clip-rule="evenodd" d="M166.977 104.878H177.224V89.7944H185.421L195.422 104.878H207.637L196.078 88.2369C199.357 87.4445 205.915 83.1872 205.915 72.4975C205.915 61.8077 196.843 58.534 192.307 58.2334H166.977V104.878ZM177.224 67.3269V80.6816C191.57 80.6816 195.422 80.8272 195.422 74.1759C195.422 67.5247 192.508 67.3269 177.224 67.3269Z" fill="#0D0D0D"/>
<path fill-rule="evenodd" clip-rule="evenodd" d="M56.8726 104.615H46.4526V57.9414H67.2928C72.8465 58.3394 83.9541 62.1205 83.9541 74.0602C83.9541 85.9999 72.8465 90.1426 67.2928 90.7215H56.8726V104.615ZM56.8726 66.9503V81.2778C57.4173 81.2778 57.9492 81.279 58.4683 81.2802C67.8785 81.3012 73.0455 81.3127 73.0455 74.0602C73.0455 66.8971 68.0052 66.9144 58.8147 66.9459C58.1866 66.9481 57.5391 66.9503 56.8726 66.9503Z" fill="#0D0D0D"/>
<path d="M6.07568 90.7412L0 97.936C2.50484 100.494 9.86477 105.61 19.2657 105.61C31.0169 105.61 37.3355 98.6554 37.3355 91.1377C37.3355 83.6199 33.2826 79.8043 23.3373 77.1394C13.3919 74.4746 12.0352 72.7549 12.0352 70.6142C12.0352 68.4735 13.7498 66.4396 19.2657 66.4396C23.6784 66.4396 28.672 69.3707 30.6172 70.8362L35.5734 63.0821C33.5362 61.5232 29.1946 57.0864 19.2657 57.0864C4.79658 57.0864 1.8388 67.2389 1.8388 70.8362V70.8376C1.8388 74.4353 1.8388 81.3045 13.1903 84.3461C24.5432 87.3881 26.9399 89.8619 26.9399 91.5407C26.9399 93.2194 26.1405 96.3371 19.2657 96.3371C13.7658 96.3371 8.18074 92.6065 6.07568 90.7412Z" fill="#0D0D0D"/>
<path d="M227.487 104.925H217.405L217.284 58.1343H227.487V78.6616L246.445 58.1343H259.003L239.985 78.0582L259.908 104.925H247.531L233.223 84.9407L227.487 90.5558V104.925Z" fill="#0D0D0D"/>
<path d="M296.044 81.4565C296.044 73.5758 289.975 67.1636 282.417 66.9653L282.057 66.9604C274.332 66.9604 268.069 73.4508 268.069 81.4565L268.074 81.8306C268.263 89.5388 274.257 95.7514 281.695 95.9468L282.057 95.9517C289.661 95.9515 295.847 89.6631 296.039 81.8306L296.044 81.4565ZM306.044 81.4565C306.044 94.6452 295.638 104.952 282.057 104.952C268.476 104.952 258.07 94.6453 258.069 81.4565C258.069 68.2676 268.475 57.9604 282.057 57.9604C295.638 57.9606 306.044 68.2677 306.044 81.4565Z" fill="#0D0D0D"/>
<path d="M225.167 125.551C225.167 122.49 222.81 119.999 219.874 119.922L219.734 119.92C216.733 119.92 214.301 122.441 214.301 125.551L214.302 125.696C214.376 128.69 216.704 131.104 219.594 131.18L219.734 131.182C222.688 131.181 225.091 128.739 225.165 125.696L225.167 125.551ZM229.052 125.551C229.052 130.674 225.009 134.678 219.734 134.678C214.458 134.678 210.416 130.674 210.416 125.551C210.416 120.428 214.458 116.424 219.734 116.424C225.009 116.424 229.052 120.428 229.052 125.551Z" fill="#0D0D0D"/>
<path d="M118.055 116.763H103.396V120.166H108.661V134.19H112.7V120.166H118.055V116.763Z" fill="#0D0D0D"/>
<path d="M196.007 134.219H192.237V116.774H196.007V134.219Z" fill="#0D0D0D"/>
<path d="M119.665 55.8799C121.148 55.8799 123.382 58.8453 126.128 62.6895L126.271 62.8896C128.989 66.694 132.225 71.2251 132.333 72.5742C132.443 73.9473 127.336 79.164 125.194 85.0947C123.481 89.8395 120.708 98.0556 119.665 101.57C118.622 98.0556 115.855 89.8395 114.142 85.0947C112 79.164 106.893 73.9473 107.003 72.5742C107.111 71.2251 110.347 66.694 113.064 62.8896L113.208 62.6895C115.954 58.8454 117.821 55.88 119.304 55.8799H119.665ZM119.665 65.5996C119.665 67.6864 118.315 70.7617 114.471 70.7617C118.293 70.7617 119.61 73.9475 119.665 75.54C119.72 73.9475 121.043 70.7617 124.865 70.7617C121.021 70.7617 119.665 67.6864 119.665 65.5996ZM119.931 1.83594C122.801 8.80908 130.465 23.7515 140.358 32.7354C150.572 42.0091 166.625 48.1431 173.375 50.0508C158.552 51.1573 143.696 61.7963 138.122 66.9775C134.359 61.8183 126.447 50.9577 124.903 48.79C124.308 47.9545 123.558 47.3762 122.797 46.9834C121.736 46.4357 120.655 46.2493 119.947 46.2324L119.668 46.2354C118.991 46.2038 117.752 46.3574 116.539 46.9834C115.778 47.3762 115.028 47.9545 114.433 48.79C112.889 50.9577 104.977 61.8183 101.214 66.9775C95.6396 61.7963 80.785 51.1575 65.9619 50.0508C72.7119 48.143 88.7645 42.009 98.9775 32.7354C109.191 23.4615 117.027 7.83776 119.668 1.18555L119.931 1.83594Z" fill="#0D0D0D"/>
<path d="M148.681 0C150.318 4.18662 153.63 7.49865 157.817 9.13545C153.63 10.7723 150.318 14.0843 148.681 18.2709C147.044 14.0843 143.732 10.7723 139.546 9.13545C143.732 7.49865 147.044 4.18662 148.681 0Z" fill="#0D0D0D"/>
<path d="M172.427 22.564C173.311 24.8247 175.099 26.6132 177.36 27.497C175.099 28.3809 173.311 30.1694 172.427 32.4301C171.543 30.1694 169.754 28.3809 167.494 27.497C169.754 26.6132 171.543 24.8247 172.427 22.564Z" fill="#0D0D0D"/>
</svg>

<svg xmlns="http://www.w3.org/2000/svg" width="307" height="135" fill="none"><path fill="#0D0D0D" fill-rule="evenodd" d="M161.439 116.73v17.504h8.474c2.638-.186 7.915-2.197 7.915-8.752s-5.277-8.566-7.915-8.752zm3.903 13.992v-10.48h4.571c1.226.149 3.679 1.405 3.679 5.24s-2.453 5.091-3.679 5.24z" clip-rule="evenodd"/><path fill="#0D0D0D" d="M135.319 116.756h-3.966v10.994c0 2.47 2.011 6.595 7.828 6.595s7.62-4.206 7.585-6.595v-10.994h-4.001v10.994c.116 1.044-.438 3.132-3.584 3.132s-3.885-2.088-3.862-3.132zM90.278 118.833l-1.89 2.575c-.718-.391-5.64-2.803-6.552-.489-.31.787.658 2.292 3.26 2.738 4.563.782 5.703 2.868 5.703 5.117s-1.206 5.476-6.03 5.476c-3.859 0-6.757-1.782-7.724-2.673l2.445-2.412c4.79 3.227 6.975 1.956 7.43.294.457-1.663-2.476-1.923-4.204-2.51s-5.117-1.173-5.117-4.857c0-3.683 2.608-5.736 6.486-5.736 3.103 0 5.422 1.651 6.193 2.477"/><path fill="#0D0D0D" fill-rule="evenodd" d="M166.977 104.878h10.247V89.794h8.197l10.001 15.084h12.215l-11.559-16.641c3.279-.792 9.837-5.05 9.837-15.74s-9.072-13.963-13.608-14.264h-25.33zm10.247-37.551v13.355c14.346 0 18.198.145 18.198-6.506s-2.914-6.85-18.198-6.85M56.873 104.615h-10.42V57.941h20.84c5.554.398 16.661 4.18 16.661 16.12 0 11.939-11.107 16.082-16.661 16.66h-10.42zm0-37.665v14.328l1.595.002c9.41.021 14.578.033 14.578-7.22 0-7.163-5.04-7.146-14.231-7.114q-.943.003-1.942.004" clip-rule="evenodd"/><path fill="#0D0D0D" d="M6.076 90.741 0 97.936c2.505 2.558 9.865 7.674 19.266 7.674 11.75 0 18.07-6.955 18.07-14.472 0-7.518-4.053-11.334-13.999-13.999-9.945-2.664-11.302-4.384-11.302-6.525s1.715-4.174 7.23-4.174c4.413 0 9.407 2.93 11.352 4.396l4.956-7.754c-2.037-1.559-6.378-5.996-16.307-5.996-14.47 0-17.427 10.153-17.427 13.75v.002c0 3.597 0 10.467 11.351 13.508 11.353 3.042 13.75 5.516 13.75 7.195 0 1.678-.8 4.796-7.674 4.796-5.5 0-11.085-3.73-13.19-5.596M227.487 104.925h-10.082l-.121-46.79h10.203v20.527l18.958-20.528h12.558l-19.018 19.924 19.923 26.867h-12.377l-14.308-19.984-5.736 5.615z"/><path fill="#0D0D0D" d="M296.044 81.457c0-7.881-6.069-14.293-13.627-14.492l-.36-.005c-7.725 0-13.988 6.49-13.988 14.497l.005.374c.189 7.708 6.183 13.92 13.621 14.116l.362.005c7.604 0 13.79-6.289 13.982-14.121zm10 0c0 13.188-10.406 23.495-23.987 23.495s-23.987-10.307-23.988-23.495c0-13.19 10.406-23.497 23.988-23.497s23.987 10.308 23.987 23.497M225.167 125.551c0-3.061-2.357-5.552-5.293-5.629l-.14-.002c-3.001 0-5.433 2.521-5.433 5.631l.001.145c.074 2.994 2.402 5.408 5.292 5.484l.14.002c2.954-.001 5.357-2.443 5.431-5.486zm3.885 0c0 5.123-4.043 9.127-9.318 9.127-5.276 0-9.318-4.004-9.318-9.127s4.042-9.127 9.318-9.127 9.318 4.004 9.318 9.127M118.055 116.763h-14.659v3.403h5.265v14.024h4.039v-14.024h5.355zM196.007 134.219h-3.77v-17.445h3.77zM119.665 55.88c1.483 0 3.717 2.965 6.463 6.81l.143.2c2.718 3.804 5.954 8.335 6.062 9.684.11 1.373-4.997 6.59-7.139 12.52-1.713 4.746-4.486 12.962-5.529 16.476-1.043-3.514-3.81-11.73-5.523-16.475-2.142-5.931-7.249-11.148-7.139-12.52.108-1.35 3.344-5.881 6.061-9.685l.144-.2c2.746-3.845 4.613-6.81 6.096-6.81zm0 9.72c0 2.086-1.35 5.162-5.194 5.162 3.822 0 5.139 3.186 5.194 4.778.055-1.593 1.378-4.778 5.2-4.778-3.844 0-5.2-3.076-5.2-5.162m.266-63.764c2.87 6.973 10.534 21.916 20.427 30.9 10.214 9.273 26.267 15.407 33.017 17.315-14.823 1.106-29.679 11.745-35.253 16.927-3.763-5.16-11.675-16.02-13.219-18.188a5.85 5.85 0 0 0-2.106-1.807 6.8 6.8 0 0 0-2.85-.75l-.279.002c-.677-.031-1.916.122-3.129.748a5.85 5.85 0 0 0-2.106 1.807c-1.544 2.168-9.456 13.028-13.219 18.188-5.574-5.182-20.429-15.82-35.252-16.927 6.75-1.908 22.802-8.042 33.016-17.316s18.049-24.897 20.69-31.55zM148.681 0a16.1 16.1 0 0 0 9.136 9.135 16.1 16.1 0 0 0-9.136 9.136 16.1 16.1 0 0 0-9.135-9.136A16.1 16.1 0 0 0 148.681 0M172.427 22.564a8.7 8.7 0 0 0 4.933 4.933 8.7 8.7 0 0 0-4.933 4.933 8.7 8.7 0 0 0-4.933-4.933 8.7 8.7 0 0 0 4.933-4.933"/></svg>
